icons/InfoCircle.svg

<svg width="24" height="24" viewBox="0 0 24 24" fill="none" xmlns="http://www.w3.org/2000/svg">
<path fill-rule="evenodd" clip-rule="evenodd" d="M21.75,12c0,5.3848 -4.3652,9.75 -9.75,9.75c-5.38477,0 -9.75,-4.3652 -9.75,-9.75c0,-5.38478 4.36523,-9.75 9.75,-9.75c5.3848,0 9.75,4.36522 9.75,9.75zM12,20.25c4.5564,0 8.25,-3.6937 8.25,-8.25c0,-4.55635 -3.6936,-8.25 -8.25,-8.25c-4.55634,0 -8.25,3.69365 -8.25,8.25c0,4.5563 3.69366,8.25 8.25,8.25zM13.125,8.625c0,0.62132 -0.5037,1.125 -1.125,1.125c-0.6213,0 -1.125,-0.50368 -1.125,-1.125c0,-0.62132 0.5037,-1.125 1.125,-1.125c0.6213,0 1.125,0.50368 1.125,1.125zM12,11c0.4142,0 0.75,0.3358 0.75,0.75v4c0,0.4142 -0.3358,0.75 -0.75,0.75c-0.4142,0 -0.75,-0.3358 -0.75,-0.75v-4c0,-0.4142 0.3358,-0.75 0.75,-0.75z" fill="#002B51"/>
</svg>

<svg width="24" height="24" viewBox="0 0 24 24" fill="none" xmlns="http://www.w3.org/2000/svg">
<path fill-rule="evenodd" clip-rule="evenodd" d="M12 2.25C6.61523 2.25 2.25 6.61522 2.25 12C2.25 17.3848 6.61523 21.75 12 21.75C17.3848 21.75 21.75 17.3848 21.75 12C21.75 6.61522 17.3848 2.25 12 2.25ZM3.75 12C3.75 7.44365 7.44366 3.75 12 3.75C16.5564 3.75 20.25 7.44365 20.25 12C20.25 16.5563 16.5564 20.25 12 20.25C7.44366 20.25 3.75 16.5563 3.75 12ZM13.125 8.625C13.125 9.24632 12.6213 9.75 12 9.75C11.3787 9.75 10.875 9.24632 10.875 8.625C10.875 8.00368 11.3787 7.5 12 7.5C12.6213 7.5 13.125 8.00368 13.125 8.625ZM12 11C12.4142 11 12.75 11.3358 12.75 11.75V15.75C12.75 16.1642 12.4142 16.5 12 16.5C11.5858 16.5 11.25 16.1642 11.25 15.75V11.75C11.25 11.3358 11.5858 11 12 11Z" fill="#002B51"/>
</svg>
